X: 3
T: March Of The Men Of Harlech, The
Z: ceolachan
S: https://thesession.org/tunes/13597#setting24101
R: barndance
M: 4/4
L: 1/8
K: Cdor
|: B3 A G2 A2 | B2 c2 d2 B2 | e2 d2 c2 B2 | A2 G2 A2 F2 |
B3 A G2 A2 | B2 c2 d2 f2 | d4 c3 B | B4- B4 :|
|: c3 B A3 B | c2 c2 z4 | f3 e d3 e | f2 f2 z4 |
f3 e d3 e | f3 e d3 e | f3 e d3 e | f2 f2 z2 d2 |
e3 g f3 f | e3 e d3 d | c3 e/d/ c2 B2 | A2 G2 A2 F2 |
B3 A G2 A2 | B2 c2 d2 f2 | d3 e c3 B | B4- B4 :|
